T: Chalk Sunday
M: 6/8
L: 1/8
K: Gmaj
G>AG B>AB | GBd g2 e | dBG AGE | A>BA A2 B/A/ | G>AG BAB | GBd g2 e | dBG AGE|G2 G G2 :|g>ag fed | ede/f/ g2 f/e/ | dBG cBc | ABd e2 (3d/e/f/ | gag fed | ede/f/ g2 e | dBG AGE | G2 G G2 :|
